X:380
T:Reel 380
M:4/4
K:Dmaj
L:1/8
dc|A>D (3DDD FEDF|E>C (3CCC EFGE|A,>D (3DDD DEFD|ECD^C D2:|dc|d>d (3dcd f>d (3dcd |A>d (3dcd edcA|e>c (3dcd e2cd|efed cABc|d>d (3dcd f>d (3dcd |e>d (3dcd edcA|ecdB cAGB|cAGE D2|
